svgs/fingerprint.svg

<svg width="192" height="192" viewBox="0 0 192 192" fill="none" xmlns="http://www.w3.org/2000/svg">
<path d="M140.424 38.019C139.806 38.019 139.188 37.865 138.647 37.557C123.81 29.934 110.983 26.7 95.5283 26.7C80.3054 26.7 65.7781 30.319 52.5643 37.557C50.7098 38.558 48.3916 37.865 47.3098 36.017C46.3052 34.169 47.0007 31.782 48.8552 30.781C63.2281 22.85 78.9918 19 95.5283 19C112.065 19 126.438 22.619 142.201 30.55C144.133 31.705 144.829 34.015 143.824 35.863C143.129 37.249 141.892 38.019 140.424 38.019ZM29.846 78.444C29.0733 78.444 28.3005 78.213 27.6051 77.751C25.9823 76.519 25.4414 74.132 26.6778 72.361C34.3279 61.581 44.0643 53.111 55.6553 47.182C80.0736 34.708 110.983 34.631 135.324 47.105C146.915 53.034 156.651 61.35 164.301 72.13C165.538 73.824 165.074 76.288 163.374 77.52C161.597 78.752 159.201 78.367 157.965 76.75C151.01 66.894 142.201 59.271 131.769 53.958C109.592 42.639 81.2327 42.639 59.1326 54.035C48.6234 59.425 39.8143 67.125 32.8597 76.75C32.2415 77.905 31.0824 78.444 29.846 78.444ZM78.1418 171.383C77.1372 171.383 76.21 170.998 75.4372 170.228C68.7145 163.529 65.0826 159.217 59.9053 149.9C54.5734 140.429 51.7916 128.879 51.7916 116.482C51.7916 93.613 71.419 74.979 95.5283 74.979C119.638 74.979 139.265 93.613 139.265 116.482C139.265 117.503 138.858 118.482 138.133 119.204C137.409 119.926 136.426 120.332 135.401 120.332C134.377 120.332 133.394 119.926 132.669 119.204C131.945 118.482 131.538 117.503 131.538 116.482C131.538 97.848 115.388 82.679 95.5283 82.679C75.669 82.679 59.5189 97.848 59.5189 116.482C59.5189 127.57 61.9917 137.811 66.7054 146.05C71.6508 154.982 75.0509 158.755 81.0009 164.761C82.4691 166.301 82.4691 168.688 81.0009 170.228C80.0736 170.998 79.1463 171.383 78.1418 171.383ZM133.547 157.138C124.351 157.138 116.238 154.828 109.592 150.285C98.0783 142.508 91.201 129.88 91.201 116.482C91.201 115.461 91.608 114.482 92.3326 113.76C93.0572 113.038 94.0399 112.632 95.0646 112.632C96.0893 112.632 97.0721 113.038 97.7967 113.76C98.5212 114.482 98.9283 115.461 98.9283 116.482C98.9283 127.339 104.492 137.58 113.919 143.894C119.406 147.59 125.819 149.361 133.547 149.361C135.401 149.361 138.492 149.13 141.583 148.591C143.67 148.206 145.756 149.592 146.065 151.748C146.451 153.75 145.06 155.829 142.897 156.214C138.492 157.061 134.629 157.138 133.547 157.138ZM118.015 173C117.706 173 117.319 173 117.01 173C104.724 169.458 96.6874 164.915 88.2646 156.676C77.4463 146.05 71.4963 131.728 71.4963 116.482C71.4963 104.008 82.16 93.844 95.2965 93.844C108.433 93.844 119.097 104.008 119.097 116.482C119.097 124.721 126.438 131.42 135.169 131.42C144.056 131.42 151.242 124.721 151.242 116.482C151.242 87.453 126.128 63.891 95.2192 63.891C73.2736 63.891 53.028 76.057 44.1416 94.922C41.1279 101.159 39.5824 108.474 39.5824 116.482C39.5824 122.488 40.1233 131.959 44.7597 144.279C45.5325 146.281 44.5279 148.514 42.5188 149.207C40.5097 149.9 38.2688 148.899 37.5733 146.974C33.7097 136.887 31.9324 126.8 31.9324 116.482C31.9324 107.242 33.7097 98.849 37.187 91.534C47.4643 70.051 70.2599 56.114 95.2192 56.114C130.301 56.114 158.97 83.141 158.97 116.405C158.97 128.879 148.306 139.043 135.169 139.043C122.033 139.043 111.369 128.879 111.369 116.405C111.369 108.166 104.183 101.467 95.2965 101.467C86.41 101.467 79.2236 108.166 79.2236 116.405C79.2236 129.572 84.3237 141.892 93.6737 151.132C101.015 158.37 108.047 162.374 118.942 165.3C121.028 165.916 122.188 168.072 121.647 170.074C121.26 171.845 119.638 173 118.015 173Z" fill="black" stroke="black" stroke-width="4"/>
</svg>

<svg width="192" height="192" viewBox="0 0 192 192" fill="none" xmlns="http://www.w3.org/2000/svg"><path d="M140.424 38.019a3.6 3.6 0 0 1-1.777-.462C123.81 29.934 110.983 26.7 95.528 26.7c-15.223 0-29.75 3.619-42.964 10.857-1.854 1.001-4.172.308-5.254-1.54-1.005-1.848-.31-4.235 1.545-5.236C63.228 22.85 78.992 19 95.528 19c16.537 0 30.91 3.619 46.673 11.55 1.932 1.155 2.628 3.465 1.623 5.313-.695 1.386-1.932 2.156-3.4 2.156ZM29.846 78.444a4.036 4.036 0 0 1-2.24-.693c-1.624-1.232-2.165-3.619-.928-5.39 7.65-10.78 17.386-19.25 28.977-25.179 24.419-12.474 55.328-12.551 79.669-.077 11.591 5.929 21.327 14.245 28.977 25.025 1.237 1.694.773 4.158-.927 5.39-1.777 1.232-4.173.847-5.409-.77-6.955-9.856-15.764-17.479-26.196-22.792-22.177-11.319-50.536-11.319-72.636.077-10.51 5.39-19.319 13.09-26.273 22.715-.618 1.155-1.778 1.694-3.014 1.694Zm48.296 92.939c-1.005 0-1.932-.385-2.705-1.155-6.722-6.699-10.354-11.011-15.532-20.328-5.332-9.471-8.113-21.021-8.113-33.418 0-22.869 19.627-41.503 43.736-41.503 24.11 0 43.737 18.634 43.737 41.503 0 1.021-.407 2-1.132 2.722a3.87 3.87 0 0 1-5.464 0 3.844 3.844 0 0 1-1.131-2.722c0-18.634-16.15-33.803-36.01-33.803-19.859 0-36.01 15.169-36.01 33.803 0 11.088 2.474 21.329 7.187 29.568 4.946 8.932 8.346 12.705 14.296 18.711a3.943 3.943 0 0 1 0 5.467c-.927.77-1.855 1.155-2.86 1.155Zm55.405-14.245c-9.196 0-17.309-2.31-23.955-6.853-11.514-7.777-18.391-20.405-18.391-33.803 0-1.021.407-2 1.132-2.722a3.871 3.871 0 0 1 5.464 0 3.843 3.843 0 0 1 1.131 2.722c0 10.857 5.564 21.098 14.991 27.412 5.487 3.696 11.9 5.467 19.628 5.467 1.854 0 4.945-.231 8.036-.77 2.087-.385 4.173 1.001 4.482 3.157.386 2.002-1.005 4.081-3.168 4.466-4.405.847-8.268.924-9.35.924ZM118.015 173h-1.005c-12.286-3.542-20.323-8.085-28.745-16.324-10.819-10.626-16.769-24.948-16.769-40.194 0-12.474 10.664-22.638 23.8-22.638 13.137 0 23.801 10.164 23.801 22.638 0 8.239 7.341 14.938 16.072 14.938 8.887 0 16.073-6.699 16.073-14.938 0-29.029-25.114-52.591-56.023-52.591-21.945 0-42.191 12.166-51.077 31.031-3.014 6.237-4.56 13.552-4.56 21.56 0 6.006.541 15.477 5.178 27.797.773 2.002-.232 4.235-2.241 4.928-2.01.693-4.25-.308-4.946-2.233-3.863-10.087-5.64-20.174-5.64-30.492 0-9.24 1.777-17.633 5.254-24.948 10.277-21.483 33.073-35.42 58.032-35.42 35.082 0 63.751 27.027 63.751 60.291 0 12.474-10.664 22.638-23.801 22.638-13.136 0-23.8-10.164-23.8-22.638 0-8.239-7.186-14.938-16.073-14.938-8.886 0-16.072 6.699-16.072 14.938 0 13.167 5.1 25.487 14.45 34.727 7.341 7.238 14.373 11.242 25.268 14.168 2.086.616 3.246 2.772 2.705 4.774-.387 1.771-2.009 2.926-3.632 2.926Z" fill="#000" stroke="#000" stroke-width="4"/></svg>
